assets/icons/discovery.svg

<svg fill="none" height="40" viewBox="0 0 40 40" width="40" xmlns="http://www.w3.org/2000/svg"><path clip-rule="evenodd" d="m20.0381 5.6c-7.9739 0-14.4381 6.4642-14.4381 14.4381s6.4642 14.4381 14.4381 14.4381 14.4381-6.4642 14.4381-14.4381-6.4642-14.4381-14.4381-14.4381zm-16.0381 14.4381c0-8.8576 7.1805-16.0381 16.0381-16.0381s16.0381 7.1805 16.0381 16.0381-7.1805 16.0381-16.0381 16.0381-16.0381-7.1805-16.0381-16.0381zm17.9429-.0001c0-1.052-.8528-1.9048-1.9048-1.9048s-1.9048.8528-1.9048 1.9048.8528 1.9048 1.9048 1.9048 1.9048-.8528 1.9048-1.9048zm6.8237-7.8092c.084-.2816.0069-.5867-.2009-.7945s-.5129-.2849-.7945-.2009l-12.3222 3.6778c-.2585.0771-.4607.2793-.5378.5378l-3.6778 12.3222c-.084.2816-.0069.5867.2009.7945s.5129.2849.7945.2009l12.3222-3.6778c.2585-.0771.4607-.2793.5378-.5378zm-15.5765 14.5811 3.1306-10.4892 10.4892-3.1306-3.1306 10.4892z" fill="#fff" fill-rule="evenodd"/></svg>

<svg width="40" height="40" viewBox="0 0 40 40" fill="none" xmlns="http://www.w3.org/2000/svg">
<path fill-rule="evenodd" clip-rule="evenodd" d="M20.0381 5.6C12.0642 5.6 5.6 12.0642 5.6 20.0381C5.6 28.012 12.0642 34.4762 20.0381 34.4762C28.012 34.4762 34.4762 28.012 34.4762 20.0381C34.4762 12.0642 28.012 5.6 20.0381 5.6ZM4 20.0381C4 11.1805 11.1805 4 20.0381 4C28.8957 4 36.0762 11.1805 36.0762 20.0381C36.0762 28.8957 28.8957 36.0762 20.0381 36.0762C11.1805 36.0762 4 28.8957 4 20.0381ZM21.9429 20.038C21.9429 18.986 21.0901 18.1332 20.0381 18.1332C18.9861 18.1332 18.1333 18.986 18.1333 20.038C18.1333 21.09 18.9861 21.9428 20.0381 21.9428C21.0901 21.9428 21.9429 21.09 21.9429 20.038ZM28.7666 12.2288C28.8506 11.9472 28.7735 11.6421 28.5657 11.4343C28.3579 11.2265 28.0528 11.1494 27.7712 11.2334L15.449 14.9112C15.1905 14.9883 14.9883 15.1905 14.9112 15.449L11.2334 27.7712C11.1494 28.0528 11.2265 28.3579 11.4343 28.5657C11.6421 28.7735 11.9472 28.8506 12.2288 28.7666L24.551 25.0888C24.8095 25.0117 25.0117 24.8095 25.0888 24.551L28.7666 12.2288ZM13.1901 26.8099L16.3207 16.3207L26.8099 13.1901L23.6793 23.6793L13.1901 26.8099Z" fill="white"/>
</svg>
